X: 30975
T: Oyster Wife's Rant, The
R: reel
M: 4/4
K: Adorian
g|"Am"edef "Em"g2 fe|"G"d<GdB dGGg|"Am"edef "Em"g2 fe|"G"dBgB "Am"A/A/A Ag|
"Am"edef "Em"g2 fe|"G"d<GdB dGGg|"Am"edef "Em"ga{ga}ge|"G"dBgB "Am"A/A/A A||
g|"Am"eAed eAAe|"G"d<GdB dGGg|"Am"eAed eAAe|"G"dBgB "Am"A/A/A Ag|
"Am"eAed eAAe|"G"d<GdB dGGg|"Em"edef ga{ga}ge|"G"dBgB "Am"A/A/A A||

